X: 20
T: Frost Is All Over, The
Z: ddevereaux
S: https://thesession.org/tunes/448#setting49284
R: jig
M: 6/8
L: 1/8
K: Amaj
e|:efg fec|BGE JGFE|GBB B2B|cff f3|
efg fec|BGE JGFE|GBB B2B|cee e3:|
|:GBB BGE|Acc cBA|GBB BAG|AGA F3|
GBB BGE|Acc cBA|GEF GBA|GEE E3:|

